X:169
T:Gentle On My Mind
C:John Hartford - All In The Name Of God
N:mandolin: Sam Bush - Transcribed by Philippe Colleu
R:bluegrass
L:1/8
Q:1/4=228
M:4/4
K:C
"(114 bpm)""D"(3^FAA (3AAA (3AAA (3AzF | z^F Ad ^cd ed | ^fa2f2a bf | "DMaj7"a6 ab | 
"D6"d'a ^f2 ab af | "DMaj7"e/^f/e dB AB de | "Em"^fe ze e[e2e2]e | [eB][eB] z2 B3e | 
_BA GB AG ED | (3EEE (3EEE (3EEE (3EEE | "Em7maj"E^F G2 FG A2 | "Em7"GA B2 AB ^c2 | 
"Em6"B^c d2 cd e2 | "A7"e6 e^f | "Em"g/^f/e fd ed ^cA | "A7"^c/B/A BG AG ^FE | 
"D"(3DDD (3DDD (3D^FF (3FFF | (3GGG (3GGG (3GAA (3AAA | (3AAA (3AAA (3AAA (3A^FF | 
(3^FFF (3FFF (3FFF (3FFF | D8 | 


